X:756
P: Leg of the Duck (Wee Murdie)
R: Jig
O: Ireland
M: 6/8
C: Ireland
C: from Richard Robinson, arr. T. Traub 4-23-04
Z:Richard Robinson 
F: http://www.leeds.ac.uk/music/Info/RRTuneBk/gettune/00000a91.abc
K:D
|: ag |"D"fga "A"efg|"D"fef "Bm"dBA|"Em"Bee efe|"A"Bee ede|"D"fga "A"efg|"D"fef "Bm"dBA|"G"Bdd dBA|"A"Bdc "D"d2 :|
|: e|"D"fdd "A"ede|"D"fef "Bm"dBA|"Em"Bee efe|"A"Bee ede|"D"fdd "A"edd|"Bm"fef dBA|"G"Bdd dBA|"A"Bdc "D"d2:|
